public/illustrations/_piggybank.svg

<svg width="316" height="210" viewBox="0 0 316 210" fill="none" xmlns="http://www.w3.org/2000/svg">
<path d="M77.8334 31.8405C108.331 25.7807 138.857 23.4163 170.106 26.9559C170.219 20.9527 173.079 16.4502 176.25 12.0752C182.112 4.07559 190.253 0.776628 199.725 0.0262222C204.837 -0.186157 209.962 0.889993 214.691 3.31111C215.427 3.50933 216.065 3.99068 216.546 4.50039C220.751 9.68243 225.494 14.5247 227.448 21.1226C229.388 27.593 229.105 34.4742 226.33 40.8031L225.197 43.2241C242.739 51.1812 256.601 62.8763 262.774 81.6506C266.554 81.0417 270.066 79.456 273.209 77.2189C272.714 76.7092 272.204 76.0578 271.722 75.5481C266.724 70.89 264.388 64.7594 263.567 58.1615C263.27 55.7687 263.538 53.3193 264.515 50.9123C265.379 48.6611 266.979 46.6079 268.933 45.093C270.604 43.6063 272.6 42.502 274.795 41.7941C276.989 41.1003 279.255 40.9587 281.435 41.2561C287.212 41.8224 291.785 46.5373 293.47 53.1777C295.084 59.2517 294.447 65.6089 291.856 71.2157C291.403 72.1218 290.935 73.0421 290.27 74.5571C291.275 74.5713 292.394 74.4296 293.357 74.1748C295.523 73.1978 297.633 71.7962 299.275 70.1538C302.9 65.9912 305.547 60.9506 306.737 55.5279C307.515 52.5829 308.889 50.9831 311.197 51.2663C311.777 51.3371 312.513 51.5352 312.98 51.9033C313.589 52.2573 314.071 52.6254 314.425 53.1493C314.779 53.6732 315.133 54.197 315.359 54.8908L315.586 56.7173C315.458 58.0199 315.204 59.3366 314.623 60.3985C312.584 64.6461 310.828 68.8653 308.45 72.7164C303.608 80.8718 292.38 85.8415 283.502 83.2363C282.624 83.0664 281.761 83.0239 280.954 83.4062C275.687 85.7707 270.59 88.4043 265.337 90.9103C265.068 91.0802 264.813 91.2643 264.558 91.5758C264.431 96.3047 264.459 101.147 264.204 106.032C263.624 120.941 258.597 134.405 251.022 147.049C242.824 160.33 231.469 171.161 217.849 178.694C215.314 180.152 212.652 181.624 210.104 182.941C209.155 183.338 208.376 184.017 207.626 184.824C207.017 185.617 206.55 186.523 206.239 187.415C204.709 192.314 203.039 197.227 201.34 201.999C200.49 204.391 199.796 206.756 196.837 207.124C193.878 207.492 192.504 205.524 191.103 203.415C189.163 200.37 187.082 197.496 184.83 194.211C184.123 195.443 183.514 196.236 183.032 197.001C181.305 200.356 179.564 203.57 177.836 206.912C177.525 207.804 176.76 208.611 175.967 209.135C175.174 209.659 174.212 209.927 173.206 209.899C172.201 209.885 171.295 209.418 170.516 208.951C169.723 208.342 169.199 207.549 168.945 206.572C167.897 203.853 166.849 201.121 165.645 198.416C165.037 196.93 164.272 195.443 163.663 193.956C159.118 194.098 154.871 194.339 150.595 194.438C143.643 194.735 136.705 194.027 130.051 192.13C129.017 191.833 127.998 191.677 126.978 191.507C123.609 190.785 123.481 190.941 121.697 193.73L114.391 205.057C114.037 205.666 113.669 206.147 113.301 206.614C112.083 208.328 110.54 209.673 108.062 209.262C107.184 209.092 106.278 208.625 105.599 207.86C104.947 207.223 104.409 206.303 104.282 205.312C102.951 201.489 101.748 197.496 100.417 193.659C99.9495 192.144 99.3124 190.516 98.6327 188.463C97.1036 189.935 95.9565 191.082 94.838 192.357C91.9496 195.571 89.189 198.615 86.3148 201.829C85.5785 202.777 84.6581 203.457 83.752 204.151C83.2423 204.646 82.4208 204.887 81.727 205.113C81.0191 205.198 80.184 205.312 79.5611 204.958C78.8248 204.76 78.1876 204.278 77.7062 203.768C77.2248 203.259 76.8426 202.593 76.7435 201.744C76.4603 200.639 76.177 199.535 76.1911 198.388C75.3133 191.365 74.3082 184.357 73.572 177.306C73.4445 176.329 73.3453 175.48 72.6798 174.701C72.1559 173.908 71.363 173.299 70.471 172.974C55.0239 165.753 40.8794 156.38 28.0659 145.138C20.2786 138.681 13.8788 130.781 9.20642 121.932C8.47017 120.601 7.59233 119.284 6.72866 118.095C-1.3701 105.692 -2.23348 92.9491 4.54851 79.8382C10.7783 67.9308 20.4484 59.6055 31.9028 53.0501C34.0266 51.79 35.9948 50.4025 38.1045 49.0008C37.4249 44.6682 36.0371 40.4066 33.9841 36.5271C33.2478 35.1962 32.2425 34.0353 31.124 33.03C29.8639 32.0389 28.4906 31.3592 27.004 30.8353C24.4696 30.0141 21.8078 29.193 19.2734 28.3718C18.2398 28.0744 17.3195 27.6214 16.4133 27.1541C15.6629 26.8143 15.0115 26.1913 14.5017 25.54C13.992 24.8887 13.6098 24.0817 13.4824 23.1048C13.3833 22.2553 13.2701 21.4198 13.5957 20.5278C13.7656 19.65 14.2469 18.8713 14.8841 18.2342C16.2574 16.6342 17.9284 15.1475 19.7549 13.7742C22.6149 11.5654 25.9703 9.86643 29.425 8.86117C33.0072 7.84175 36.6745 7.53023 40.2991 7.94083C46.2316 8.6346 51.8806 10.5037 56.9777 13.5761C64.1986 17.6679 70.5985 23.3029 75.8372 29.9292C76.5026 30.7079 77.1679 31.4725 77.8334 32.2512L77.7771 31.8264L77.8334 31.8405ZM35.8106 60.0304C57.6008 63.1736 69.381 79.9798 67.8943 97.8479C66.4077 116.863 53.0417 133.358 26.9473 131.177C29.3826 133.584 31.3647 135.765 33.6018 137.634C46.0755 148.493 60.0646 157.753 74.9312 164.889C76.2762 165.441 77.3947 166.291 78.3716 167.31C80.5804 170.17 82.6618 173.2 82.7468 177.32C83.0299 180.704 83.4262 183.946 83.9784 187.302C84.1058 188.279 84.3465 189.114 84.6721 190.643C88.3251 186.764 91.4543 183.238 94.7249 179.699C95.7302 178.58 96.8627 177.433 98.0237 176.442C98.5334 175.947 99.1989 175.579 99.9069 175.494C100.615 175.409 101.309 175.324 102.045 175.508C102.781 175.692 103.39 176.06 103.871 176.428C104.367 176.938 104.848 177.448 105.075 178.127C105.67 179.486 106.108 180.704 106.561 182.077C107.906 186.042 109.252 190.02 110.696 194.693C113.216 190.813 115.227 187.571 117.28 184.456C119.687 180.874 120.932 180.577 125.038 181.497C132.373 183.154 139.749 185.093 147.466 185.136C152.747 185.192 158 184.966 163.239 184.612C168.746 184.215 170.304 185.164 172.484 190.176C173.079 191.535 173.673 192.88 174.466 194.636C175.287 193.249 175.769 192.484 176.109 191.719C177.496 189.128 178.728 186.396 180.271 183.932C182.523 180.223 186.076 180.081 188.767 183.451C189.786 184.754 190.678 186.212 191.556 187.529C192.745 189.086 193.821 190.813 195.379 193.05C196.823 188.59 198.097 185.008 199.06 181.327C199.216 180.308 199.683 179.401 200.292 178.609C200.901 177.816 201.821 177.136 202.77 176.726C206.267 175.012 209.622 173.313 213.105 171.444C223.115 165.923 231.894 158.418 239.044 149.399C244.085 142.929 248.191 135.708 251.079 127.935C255.879 116.07 256.629 103.71 255.638 91.1368C255.298 86.0397 253.84 81.2258 251.291 76.8366C249.323 73.6509 247.242 70.6351 245.019 67.6335C240.616 62.0409 234.853 58.1897 228.736 54.8199C225.664 53.0643 222.351 51.6202 219.293 50.0061C210.783 57.3403 201.722 59.0393 191.259 56.335C180.484 53.39 174.424 46.0134 170.785 36.1873C169.468 35.9183 168.166 35.8049 166.849 35.5359C154.545 34.0634 142.227 33.7379 129.895 34.4175C112.607 35.4228 95.1779 36.3006 78.3574 41.1003C67.0588 44.3568 55.9442 47.8823 45.6791 53.7157C42.2244 55.712 38.9115 57.8357 35.6125 59.9595L35.7681 60.0871L35.8106 60.0304ZM31.648 70.0971C25.8855 70.805 20.6749 73.5944 16.6255 77.8136C12.7178 82.0046 10.2401 87.3139 9.67377 93.0906C8.13047 103.695 12.0667 112.346 20.8168 118.534C27.5563 123.404 35.1454 123.602 42.7627 120.657C54.3162 116.084 62.0325 102.294 58.1388 88.2202C56.5814 82.5567 53.2541 77.5587 48.5392 74.1464C43.8244 70.5926 38.1184 69.4458 31.5063 70.267L31.6339 70.1113L31.648 70.0971ZM198.409 9.04524C191.202 9.65406 185.935 13.1655 181.985 19.2112C179.818 22.4818 178.884 26.4461 179.082 30.269C179.294 34.2334 180.739 37.9146 183.132 41.0436C187.86 47.0186 194.218 48.8026 201.226 48.9301C203.081 48.9867 204.908 48.7601 206.536 47.9814C208.164 47.3442 209.736 46.155 210.854 44.8807C212.978 42.4738 215.427 40.3216 217.551 37.9146C218.415 36.8103 219.123 35.5785 219.378 34.2618C220.496 28.2727 219.916 22.496 215.597 17.6113C214.62 16.5918 213.757 15.4166 213.035 14.2132C210.543 10.2488 206.96 8.97452 202.543 8.94621C201.099 8.83294 199.697 9.01689 198.295 9.18679L198.423 9.03107L198.409 9.04524ZM67.3845 33.8511C63.4342 27.3523 57.6009 23.9401 51.895 20.5137C47.1235 17.6819 41.6581 16.2237 36.1079 16.337C32.4266 16.5069 28.8872 17.9511 26.0413 20.3014C27.089 20.7403 28.1509 21.1792 29.1844 21.4765C32.4126 22.2128 35.4709 23.841 38.0336 26.0922C40.5963 28.3435 42.5077 31.1044 43.612 34.2476C44.4474 36.428 45.1552 38.6226 45.9906 40.8031C46.4154 41.8933 46.6844 42.9976 47.0808 43.8047C47.6472 43.7339 47.9448 43.847 48.058 43.6771C53.7357 41.1144 59.5547 38.5377 65.204 35.8475C65.9969 35.3237 66.7475 34.5166 67.512 33.7096L67.3845 33.8653V33.8511ZM281.194 71.3856C285.881 66.6708 287.155 58.5155 284.196 53.0361C283.629 51.96 282.653 50.9406 281.577 50.3601C277.357 48.6044 271.878 52.7103 272.459 57.3402C273.308 63.0886 275.658 68.2141 281.194 71.3856Z" fill="#102185"/>
<path d="M223.017 100.44L207.216 99.5477L168.747 97.608C168.039 97.6929 167.161 97.523 166.453 97.4664C161.398 96.9567 160.365 95.5124 160.733 90.472C161.158 84.7094 161.299 78.9893 161.597 73.2409C161.611 72.2356 161.639 71.2445 161.795 70.2251C162.347 66.5863 163.452 65.1705 167.303 65.1139C173.83 64.8732 180.428 65.0572 186.856 65.1139C198.721 65.3546 210.741 65.5812 222.635 65.9494C227.944 66.1476 229.601 68.0873 229.261 73.3968C228.865 80.5752 228.468 87.7677 228.086 94.9461C227.944 98.3867 226.288 100.015 222.904 100.298L223.059 100.425L223.017 100.44ZM170.885 88.5039C175.444 89.6507 215.329 91.4064 218.515 90.5852L219.265 74.7985C203.237 74.3596 187.465 73.7507 171.48 73.7366C171.267 78.9045 171.14 83.6192 170.885 88.5039Z" fill="#102185"/>
<path d="M140.061 81.4809C140.995 92.4963 140.627 102.096 136.479 111.313C135.827 112.97 135.331 114.739 134.822 116.368C134.666 117.387 134.072 118.322 133.293 118.987C132.514 119.652 131.565 120.063 130.447 120.19C128.196 120.474 127.006 118.902 126.058 117.019C125.661 116.07 124.981 115.292 124.585 114.343C123.551 111.766 121.98 109.387 120.026 107.49C118.072 105.593 115.75 104.021 113.06 103.073C109.45 101.529 105.712 100.128 102.087 98.5844C100.742 98.0322 99.5244 97.4802 98.1793 96.928C94.2007 94.7051 92.544 91.7741 93.436 87.3849C94.951 80.0649 96.7635 72.8441 98.59 65.6373C99.0147 64.448 99.595 63.3721 100.487 62.5509C101.379 61.7297 102.441 61.0217 103.687 60.7243C107.212 59.2943 111.12 58.5156 114.986 58.6147C118.851 58.6997 122.66 59.5208 126.157 61.2199C132.33 63.8817 135.997 69.2761 138.333 75.4068C138.999 77.3182 139.381 79.2721 139.763 81.226L140.075 81.4667L140.061 81.4809ZM129.229 104.644C129.569 103.894 129.895 103.129 130.234 102.379C132.018 94.8749 132.174 87.0169 130.39 79.527C129.951 77.1625 128.974 74.9963 127.318 73.1982C125.803 71.3859 123.778 69.9275 121.527 69.0638C117.194 67.4639 112.55 66.8975 107.836 69.0638C105.202 75.3785 103.772 82.2596 102.045 89.0415C111.715 93.4024 122.107 95.5404 129.229 104.644Z" fill="#102185"/>
<path d="M81.5714 73.4663C80.4529 73.6079 79.2776 73.3248 78.329 72.5885C77.3804 71.8523 76.814 70.7763 76.545 69.6719C76.4034 68.5534 76.7009 67.5056 77.4372 66.5711C78.1876 65.7641 79.1078 65.0844 80.2264 64.9428C80.7927 64.872 81.3449 64.8013 81.9537 65.0137C82.5625 65.2261 83.0015 65.4525 83.4829 65.8207C83.9643 66.1888 84.2897 66.5711 84.6437 67.1091C84.9977 67.6472 85.0686 68.1994 85.1394 68.7658C85.2102 69.3321 85.281 69.8842 85.1961 70.3232C85.1253 70.9037 84.8988 71.3567 84.5307 71.8381C84.1625 72.3195 83.78 72.6452 83.2278 72.8576C82.6756 73.07 82.1379 73.2823 81.7131 73.3248L81.5855 73.4805L81.5714 73.4663Z" fill="#102185"/>
<path d="M64.4823 55.3297C65.0487 55.2589 65.4594 55.2022 66.0683 55.4146C66.5072 55.4995 67.1018 55.7119 67.4416 56.0942C67.8947 56.3207 68.2344 56.7031 68.4468 57.2553C68.645 57.6659 68.8434 58.2038 68.9142 58.7701C68.985 59.3365 69.0415 59.7471 68.8291 60.3559C68.7442 60.7948 68.5318 61.3894 68.1495 61.7292C67.923 62.1823 67.399 62.5364 66.9884 62.7346C66.5778 62.9328 66.0397 63.131 65.4734 63.2018C64.4964 63.3292 63.4487 63.0178 62.67 62.409C61.8913 61.8002 61.339 60.8657 61.2116 59.8746C61.0842 58.8835 61.2544 57.8782 61.8632 57.0854C62.472 56.2925 63.2648 55.7686 64.2417 55.5138L64.5107 55.3439L64.4823 55.3297Z" fill="#102185"/>
<path d="M50.1673 96.3329C50.6203 99.9858 49.629 103.54 47.4344 106.513C46.7123 107.603 45.8204 108.424 44.7302 108.849C43.64 109.274 42.3799 109.43 41.2189 109.288C40.0437 109.005 38.9676 108.424 38.0049 107.547C37.1837 106.655 36.6174 105.578 36.3201 104.333C35.8103 102.534 35.8529 100.538 36.0228 98.5134C36.3626 96.6161 36.9853 94.8321 37.9198 93.1472C38.4862 91.9296 39.5055 90.9526 40.6949 90.2305C41.9125 89.65 43.3001 89.3386 44.6168 89.6076C45.9336 89.8766 47.2786 90.4147 48.1282 91.4482C49.1051 92.4677 49.6857 93.6852 49.9972 95.0728L50.1956 96.616L50.1673 96.3329Z" fill="#102185"/>
<path d="M17.3898 95.5545C17.0216 92.6095 17.6588 89.6645 18.8907 86.9461C19.4145 85.4594 20.5615 84.3126 21.8925 83.5763C23.2234 82.8401 24.9081 82.6277 26.3665 82.8826C29.1416 83.3923 30.8265 85.4736 31.407 88.9567C31.8459 92.468 31.2795 95.965 29.4955 98.8959C27.8531 101.813 25.1772 103.143 22.5154 102.478C21.1986 102.209 19.9524 101.374 19.1171 100.326C18.2817 99.2782 17.7014 98.0747 17.5173 96.673L17.3756 95.5545H17.3898Z" fill="#102185"/>
</svg>

<svg xmlns="http://www.w3.org/2000/svg" width="316" height="210" fill="none" viewBox="0 0 316 210"><path fill="#102185" d="M77.833 31.84c30.498-6.06 61.024-8.424 92.273-4.884.113-6.003 2.973-10.506 6.144-14.88 5.862-8 14.003-11.3 23.475-12.05a30 30 0 0 1 14.966 3.285c.736.198 1.374.68 1.855 1.19 4.205 5.181 8.948 10.024 10.902 16.622 1.94 6.47 1.657 13.351-1.118 19.68l-1.133 2.421c17.542 7.957 31.404 19.652 37.577 38.427 3.78-.61 7.292-2.195 10.435-4.432-.495-.51-1.005-1.161-1.487-1.67-4.998-4.659-7.334-10.79-8.155-17.388a14.36 14.36 0 0 1 .948-7.249c.864-2.25 2.464-4.304 4.418-5.819 1.671-1.487 3.667-2.591 5.862-3.299 2.194-.694 4.46-.835 6.64-.538 5.777.566 10.35 5.281 12.035 11.922 1.614 6.074.977 12.43-1.614 18.038-.453.906-.921 1.826-1.586 3.341a12 12 0 0 0 3.087-.382c2.166-.977 4.276-2.379 5.918-4.021 3.625-4.163 6.272-9.203 7.462-14.626.778-2.945 2.152-4.545 4.46-4.262.58.071 1.316.27 1.783.637.609.354 1.091.722 1.445 1.246s.708 1.048.934 1.742l.227 1.826c-.128 1.303-.382 2.62-.963 3.682-2.039 4.247-3.795 8.466-6.173 12.317-4.842 8.156-16.07 13.126-24.948 10.52-.878-.17-1.741-.212-2.548.17-5.267 2.365-10.364 4.998-15.617 7.504-.269.17-.524.354-.779.666-.127 4.729-.099 9.571-.354 14.456-.58 14.909-5.607 28.373-13.182 41.017-8.198 13.281-19.553 24.112-33.173 31.645a200 200 0 0 1-7.745 4.247c-.949.397-1.728 1.076-2.478 1.883a9.4 9.4 0 0 0-1.387 2.591c-1.53 4.899-3.2 9.812-4.899 14.584-.85 2.392-1.544 4.757-4.503 5.125s-4.333-1.6-5.734-3.709c-1.94-3.045-4.021-5.919-6.273-9.204-.707 1.232-1.316 2.025-1.798 2.79-1.727 3.355-3.468 6.569-5.196 9.911-.311.892-1.076 1.699-1.869 2.223a4.76 4.76 0 0 1-2.761.764c-1.005-.014-1.911-.481-2.69-.948a4.27 4.27 0 0 1-1.571-2.379c-1.048-2.719-2.096-5.451-3.3-8.156-.608-1.486-1.373-2.973-1.982-4.46-4.545.142-8.792.383-13.068.482-6.952.297-13.89-.411-20.544-2.308-1.034-.297-2.053-.453-3.073-.623-3.369-.722-3.497-.566-5.281 2.223l-7.306 11.327c-.354.609-.722 1.09-1.09 1.557-1.218 1.714-2.761 3.059-5.239 2.648a4.46 4.46 0 0 1-2.463-1.402c-.652-.637-1.19-1.557-1.317-2.548-1.331-3.823-2.534-7.816-3.865-11.653-.468-1.515-1.105-3.143-1.784-5.196-1.53 1.472-2.676 2.619-3.795 3.894-2.888 3.214-5.649 6.258-8.523 9.472-.736.948-1.657 1.628-2.563 2.322-.51.495-1.331.736-2.025.962-.708.085-1.543.199-2.166-.155-.736-.198-1.373-.68-1.855-1.19a3.5 3.5 0 0 1-.963-2.024c-.283-1.105-.566-2.209-.552-3.356-.878-7.023-1.883-14.031-2.619-21.082-.127-.977-.227-1.826-.892-2.605a4.5 4.5 0 0 0-2.209-1.727c-15.447-7.221-29.592-16.594-42.405-27.836a76.7 76.7 0 0 1-18.86-23.206c-.736-1.331-1.614-2.648-2.477-3.837-8.1-12.403-8.962-25.146-2.18-38.257 6.23-11.907 15.9-20.232 27.354-26.788 2.124-1.26 4.092-2.647 6.202-4.05-.68-4.332-2.068-8.593-4.12-12.473-.737-1.33-1.742-2.492-2.861-3.497-1.26-.991-2.633-1.67-4.12-2.195-2.534-.82-5.196-1.642-7.73-2.463-1.034-.298-1.954-.75-2.86-1.218-.751-.34-1.403-.963-1.912-1.614a4.94 4.94 0 0 1-1.02-2.435c-.099-.85-.212-1.685.114-2.577.17-.878.65-1.657 1.288-2.294 1.373-1.6 3.044-3.087 4.87-4.46a29.5 29.5 0 0 1 9.671-4.913c3.582-1.02 7.25-1.33 10.874-.92 5.933.694 11.582 2.563 16.679 5.635 7.22 4.092 13.62 9.727 18.86 16.353.665.779 1.33 1.544 1.995 2.322l-.056-.425zM35.811 60.03c21.79 3.144 33.57 19.95 32.083 37.818-1.486 19.015-14.852 35.51-40.947 33.329 2.436 2.407 4.418 4.588 6.655 6.457 12.474 10.859 26.463 20.119 41.33 27.255 1.344.552 2.463 1.402 3.44 2.421 2.208 2.86 4.29 5.89 4.375 10.01.283 3.384.68 6.626 1.231 9.982.128.977.369 1.812.694 3.341 3.653-3.879 6.782-7.405 10.053-10.944 1.005-1.119 2.138-2.266 3.299-3.257.51-.495 1.175-.863 1.883-.948s1.402-.17 2.138.014 1.345.552 1.826.92c.496.51.977 1.02 1.204 1.699.595 1.359 1.033 2.577 1.486 3.95 1.345 3.965 2.691 7.943 4.135 12.616 2.52-3.88 4.531-7.122 6.584-10.237 2.407-3.582 3.652-3.879 7.758-2.959 7.335 1.657 14.711 3.596 22.428 3.639 5.281.056 10.534-.17 15.773-.524 5.507-.397 7.065.552 9.245 5.564a401 401 0 0 0 1.982 4.46c.821-1.387 1.303-2.152 1.643-2.917 1.387-2.591 2.619-5.323 4.162-7.787 2.252-3.709 5.805-3.851 8.496-.481 1.019 1.303 1.911 2.761 2.789 4.078 1.189 1.557 2.265 3.284 3.823 5.521 1.444-4.46 2.718-8.042 3.681-11.723.156-1.019.623-1.926 1.232-2.718.609-.793 1.529-1.473 2.478-1.883a311 311 0 0 0 10.335-5.282c10.01-5.521 18.789-13.026 25.939-22.045 5.041-6.47 9.147-13.691 12.035-21.464 4.8-11.865 5.55-24.225 4.559-36.798-.34-5.097-1.798-9.911-4.347-14.3-1.968-3.186-4.049-6.202-6.272-9.204-4.403-5.592-10.166-9.443-16.283-12.813-3.072-1.756-6.385-3.2-9.443-4.814-8.51 7.334-17.571 9.033-28.034 6.329-10.775-2.945-16.835-10.322-20.474-20.148-1.317-.269-2.619-.382-3.936-.651-12.304-1.473-24.622-1.798-36.954-1.119-17.288 1.006-34.717 1.884-51.538 6.683-11.298 3.257-22.413 6.782-32.678 12.616-3.455 1.996-6.768 4.12-10.067 6.243l.156.128zm-4.163 10.067c-5.762.708-10.973 3.497-15.022 7.717-3.908 4.19-6.386 9.5-6.952 15.277-1.544 10.604 2.393 19.255 11.143 25.443 6.74 4.87 14.328 5.068 21.946 2.123 11.553-4.573 19.27-18.363 15.376-32.437-1.558-5.663-4.885-10.661-9.6-14.074-4.715-3.553-10.42-4.7-17.033-3.879l.128-.156zM198.409 9.045c-7.207.61-12.474 4.12-16.424 10.166-2.167 3.27-3.101 7.235-2.903 11.058.212 3.964 1.657 7.646 4.05 10.775 4.728 5.975 11.086 7.759 18.094 7.886 1.855.057 3.682-.17 5.31-.949 1.628-.637 3.2-1.826 4.318-3.1 2.124-2.407 4.573-4.56 6.697-6.966.864-1.105 1.572-2.337 1.827-3.653 1.118-5.99.538-11.766-3.781-16.65-.977-1.02-1.84-2.195-2.562-3.399-2.492-3.964-6.075-5.238-10.492-5.267-1.444-.113-2.846.07-4.248.24l.128-.155zM67.385 33.851c-3.95-6.499-9.784-9.91-15.49-13.337a29.75 29.75 0 0 0-15.787-4.177c-3.681.17-7.22 1.614-10.067 3.964 1.048.44 2.11.878 3.143 1.176 3.229.736 6.287 2.364 8.85 4.615s4.474 5.012 5.578 8.156c.835 2.18 1.543 4.375 2.379 6.555.424 1.09.693 2.195 1.09 3.002.566-.071.864.042.977-.128 5.678-2.563 11.497-5.14 17.146-7.83.793-.523 1.544-1.33 2.308-2.137l-.127.155zm213.809 37.535c4.687-4.715 5.961-12.87 3.002-18.35-.567-1.076-1.543-2.095-2.619-2.676-4.22-1.756-9.699 2.35-9.118 6.98.849 5.749 3.199 10.874 8.735 14.046"/><path fill="#102185" d="m223.017 100.44-15.801-.892-38.469-1.94c-.708.085-1.586-.085-2.294-.142-5.055-.51-6.088-1.954-5.72-6.994.425-5.763.566-11.483.864-17.231.014-1.005.042-1.996.198-3.016.552-3.639 1.657-5.054 5.508-5.111 6.527-.24 13.125-.057 19.553 0 11.865.24 23.885.467 35.779.835 5.309.199 6.966 2.138 6.626 7.448-.396 7.178-.793 14.37-1.175 21.55-.142 3.44-1.798 5.068-5.182 5.351l.155.127zm-52.132-11.936c4.559 1.147 44.444 2.902 47.63 2.081l.75-15.786c-16.028-.44-31.8-1.048-47.785-1.062-.213 5.168-.34 9.882-.595 14.767M140.061 81.48c.934 11.016.566 20.616-3.582 29.833-.652 1.657-1.148 3.426-1.657 5.055-.156 1.019-.75 1.954-1.529 2.619s-1.728 1.076-2.846 1.203c-2.251.284-3.441-1.288-4.389-3.171-.397-.949-1.077-1.727-1.473-2.676-1.034-2.577-2.605-4.956-4.559-6.853s-4.276-3.469-6.966-4.417c-3.61-1.544-7.348-2.945-10.973-4.489-1.345-.552-2.563-1.104-3.908-1.656-3.978-2.223-5.635-5.154-4.743-9.543 1.515-7.32 3.327-14.54 5.154-21.748.425-1.189 1.005-2.265 1.897-3.086s1.954-1.53 3.2-1.827c3.525-1.43 7.433-2.208 11.299-2.11 3.865.086 7.674.907 11.171 2.606 6.173 2.662 9.84 8.056 12.176 14.187.666 1.911 1.048 3.865 1.43 5.819l.312.24zm-10.832 23.164c.34-.75.666-1.515 1.005-2.265 1.784-7.504 1.94-15.362.156-22.852-.439-2.365-1.416-4.53-3.072-6.329a14.3 14.3 0 0 0-5.791-4.134c-4.333-1.6-8.977-2.166-13.691 0-2.634 6.315-4.064 13.196-5.791 19.978 9.67 4.36 20.062 6.498 27.184 15.602M81.571 73.466a4.38 4.38 0 0 1-3.242-.877c-.949-.737-1.515-1.813-1.784-2.917-.142-1.119.156-2.166.892-3.1.75-.808 1.67-1.488 2.79-1.63.566-.07 1.118-.14 1.727.072s1.047.439 1.529.807c.481.368.807.75 1.16 1.288.355.538.426 1.09.496 1.657.071.566.142 1.118.057 1.557-.07.58-.297 1.034-.665 1.515-.369.482-.751.807-1.303 1.02s-1.09.424-1.515.467l-.127.156zM64.482 55.33c.567-.071.977-.128 1.586.085.44.084 1.034.297 1.374.68.453.226.792.608 1.005 1.16.198.41.396.949.467 1.515s.127.977-.085 1.586c-.085.439-.297 1.033-.68 1.373-.226.453-.75.807-1.16 1.006-.411.198-.95.396-1.516.467-.977.127-2.024-.184-2.803-.793a3.92 3.92 0 0 1-1.458-2.534c-.128-.992.042-1.997.651-2.79a4.28 4.28 0 0 1 2.379-1.571l.269-.17zM50.167 96.333c.453 3.653-.538 7.207-2.733 10.18-.722 1.09-1.614 1.911-2.704 2.336a7.4 7.4 0 0 1-3.511.439c-1.175-.283-2.251-.864-3.214-1.741-.821-.892-1.388-1.969-1.685-3.214-.51-1.799-.467-3.795-.297-5.82.34-1.897.962-3.68 1.897-5.366.566-1.217 1.585-2.194 2.775-2.916 1.218-.581 2.605-.892 3.922-.623s2.662.807 3.511 1.84c.977 1.02 1.558 2.237 1.87 3.625l.198 1.543zM17.39 95.555c-.368-2.946.269-5.89 1.5-8.609.524-1.487 1.671-2.633 3.002-3.37 1.331-.736 3.016-.948 4.474-.693 2.776.51 4.46 2.59 5.041 6.074.439 3.511-.128 7.008-1.912 9.939-1.642 2.917-4.318 4.247-6.98 3.582-1.316-.269-2.563-1.104-3.398-2.152s-1.416-2.251-1.6-3.653l-.141-1.118z"/></svg>
